localPackages/DesignSystem/Sources/DesignSystem/Resources/Assets.xcassets/IconSet/ic-lock-exclamation-filled.imageset/ic-lock-exclamation-filled.svg

<svg width="24" height="24" viewBox="0 0 24 24" fill="none" xmlns="http://www.w3.org/2000/svg">
<g id="ic-lock-exclamation-filled">
<path id="Icon" fill-rule="evenodd" clip-rule="evenodd" d="M6.3 7.5L6 7.50008V6.75C6 4.67893 7.67893 3 9.75 3C11.8211 3 13.5 4.67893 13.5 6.75V7.50008L13.2 7.5H6.3ZM3.13803 7.82698C3.49429 7.64546 3.91168 7.56471 4.5 7.52878V6.75C4.5 3.85051 6.85051 1.5 9.75 1.5C12.6495 1.5 15 3.85051 15 6.75V7.52878C15.5883 7.56471 16.0057 7.64546 16.362 7.82698C16.888 8.09502 17.3224 8.51186 17.6119 9.02424C16.593 8.8871 15.51 9.33183 14.9062 10.3584L9.39729 19.7249C8.88843 20.5901 8.89919 21.6513 9.31965 22.5H6.3C4.61984 22.5 3.77976 22.5 3.13803 22.173C2.57354 21.8854 2.1146 21.4265 1.82698 20.862C1.5 20.2202 1.5 19.3802 1.5 17.7V12.3C1.5 10.6198 1.5 9.77976 1.82698 9.13803C2.1146 8.57354 2.57354 8.1146 3.13803 7.82698ZM18.3008 11.1189C17.8155 10.2937 16.6845 10.2937 16.1992 11.1189L10.6903 20.4853C10.1745 21.3624 10.7679 22.5 11.7411 22.5H22.7589C23.7321 22.5 24.3255 21.3624 23.8097 20.4853L18.3008 11.1189ZM18 14.25C18 13.8358 17.6642 13.5 17.25 13.5C16.8358 13.5 16.5 13.8358 16.5 14.25V18C16.5 18.4142 16.8358 18.75 17.25 18.75C17.6642 18.75 18 18.4142 18 18V14.25ZM17.25 19.5C17.6642 19.5 18 19.8358 18 20.25V20.2573C18 20.6715 17.6642 21.0073 17.25 21.0073C16.8358 21.0073 16.5 20.6715 16.5 20.2573V20.25C16.5 19.8358 16.8358 19.5 17.25 19.5Z" fill="#0F0F0F"/>
</g>
</svg>

<svg xmlns="http://www.w3.org/2000/svg" width="24" height="24" viewBox="0 0 24 24">
  <g class="ic-lock-exclamation-filled">
    <path fill-rule="evenodd" d="M6.3 7.5H6v-.75a3.75 3.75 0 1 1 7.5 0v.75H6.3Zm-3.162.327c.356-.182.774-.262 1.362-.298V6.75a5.25 5.25 0 0 1 10.5 0v.779c.588.036 1.006.116 1.362.298a3 3 0 0 1 1.25 1.197 2.7 2.7 0 0 0-2.706 1.334l-5.509 9.367c-.509.865-.498 1.926-.077 2.775H6.3c-1.68 0-2.52 0-3.162-.327a3 3 0 0 1-1.311-1.311C1.5 20.22 1.5 19.38 1.5 17.7v-5.4c0-1.68 0-2.52.327-3.162a3 3 0 0 1 1.311-1.311Zm15.163 3.292a1.202 1.202 0 0 0-2.102 0l-5.509 9.366c-.515.877.078 2.015 1.051 2.015H22.76c.973 0 1.567-1.138 1.05-2.015l-5.508-9.366ZM18 14.25a.75.75 0 0 0-1.5 0V18a.75.75 0 0 0 1.5 0v-3.75Zm-.75 5.25a.75.75 0 0 1 .75.75v.007a.75.75 0 0 1-1.5 0v-.007a.75.75 0 0 1 .75-.75Z" class="Icon"/>
  </g>
</svg>
